X:1
T:Title
%%score { ( 1 4 ) | ( 2 3 ) }
L:1/8
M:4/4
K:G
V:1 treble nm="Grand Piano"
V:4 treble 
V:2 bass 
V:3 bass 
V:1
 z4 z2[Q:1/4=100] [DB]>[CA] | [B,G]2 [CE]2 [B,D]2 [DB]>[DA] | %2
 [G,EG]2 [G,CE]2 [G,B,D]2 [B,DG]>[CDA] | G2 F2 A2 G2 | B4 A2 d>c | B2 [DG]2 A2 B>A | %6
[M:3/4] G2 E2 [B,D]2 |[M:1/4] [DB]>[G,DG] |[M:4/4] [G,CE]2 [CEA]2 [B,DG]2 [A,DF]2 | %9
[M:3/4] [B,DG]6 |[M:1/4] [A,DF]>[A,EG] |[M:4/4] [DFA]2 [DGB]2 [DFA]2 [DFd]>[DA^c] | %12
 [DA^c]2 [DGB]2 [DGB]2 [DBd]>[DGB] | z2 [G^c]4 z2 |[M:9/8] [DA]2 d- d3- d z z | %15
[M:4/4] [DGB]2 [EGc]2 [CFA]2 [DFB]>[CFA] | [B,EG]2 [CEA]2 [A,DF]2 [DB]>[G,DG] | %17
 [G,CE]2 [CEA]2 [B,DG]2 [A,DF]2 |[M:3/4] [B,DG]6 |] %19
V:2
 z4 z2 [G,,G,]>[G,,G,] | [G,,G,]2 [G,,G,]2 [G,,G,]2 [G,,G,]>[B,,G,] | C,2 C,2 G,,2 G,,>G,, | %3
 [D,B,D]2 [D,A,D]2 [D,CD]2 [D,B,D]2 | [D,D]4- [D,F,D]2 [D,B,D]>[D,A,D] | %5
 [G,D]2 [B,,G,]2 [D,F,D]2 [D,F,D]>[D,F,C] |[M:3/4] [E,G,B,]2 [C,G,C]2 [G,,G,]2 | %7
[M:1/4] [G,,G,]>B,, |[M:4/4] C,2 A,,2 D,2 D,2 |[M:3/4] G,,6 |[M:1/4] D,>D, | %11
[M:4/4] D,2 D,2 D,2 D,>F, | G,2 G,2 G,2 G,>G, | A,2 A,2 A,2 z A | %14
[M:9/8] D,2 [D,A,]- [D,A,] D,2- D,[D,A,]>F, |[M:4/4] G,2 C,2 D,2 D,>D, | E,2 A,,2 D,2 [B,,G,]>B,, | %17
 C,2 A,,2 D,2 D,2 |[M:3/4] G,,6 |] %19
V:3
 x8 | x8 | x8 | x8 | G,4 z4 | x8 |[M:3/4] x6 |[M:1/4] x2 |[M:4/4] x8 |[M:3/4] x6 |[M:1/4] x2 | %11
[M:4/4] x8 | x8 | z4 z2 A,,2 |[M:9/8] x9 |[M:4/4] x8 | x8 | x8 |[M:3/4] x6 |] %19
V:4
 x8 | x8 | x8 | x8 | x8 | x8 |[M:3/4] x6 |[M:1/4] x2 |[M:4/4] x8 |[M:3/4] x6 |[M:1/4] x2 | %11
[M:4/4] x8 | x8 | [DFA]2 E2 E2 .[^CGB]2 |[M:9/8] F3- F- [A,F]2- [A,-F]/A,<[Fd][DAc]/ |[M:4/4] x8 | %16
 x8 | x8 |[M:3/4] x6 |] %19

